X:1
T:Title
%%score { ( 1 4 ) | ( 2 3 ) }
L:1/8
M:4/4
K:G
V:1 treble nm="Grand Piano"
V:4 treble 
V:2 bass 
V:3 bass 
V:1
 z4 z2[Q:1/4=90] D2 | G2 GA GFEF | GA[GB][Gc] [Fd]3 [Fd] | edBG ed[GB][B,G] | %4
[M:3/4] [DGB]4 [DFA]2 |[M:1/4] D2 |[M:4/4] G2 GA GFEF | GA[GB][Gc] [Fd]3 [Fd] | edBG edBG | %9
[M:3/4] [FA]4 [B,G]2 |[M:1/4] [Ge]>d |[M:4/4] [CEc][CEG][B,=FG][B,FA] [CEG][CEc] [B,Ge]>[B,Fd] | %12
 [CEc][CEG][B,FG][B,FA] .[CEG]2 [B,^DB]>[B,DA] | [B,EG][G,E] [B,^DB]2 [B,EG][G,E] [B,DB]>[B,DA] | %14
[M:7/8] [B,EG][G,E][G,EG] [EA] [^DB]3 |[M:1/4] D2 |[M:4/4] G2 GA GFEF | GA[GB][Gc] [Fd]3 [Fd] | %18
 edBG edBG |[M:7/4] [FA]4 [B,G]2 z2 z2 z4 |] %20
V:2
 z4 z2 D,2 | [G,B,D]2 [D,B,D][D,B,D] [A,CD][A,CD][D,CD][D,CD] | %2
 [G,B,D][G,B,D][E,G,][E,G,] [D,A,]3 [D,C] | z4 [G,G]2[K:bass] z2 |[M:3/4] G,,A,, B,,C, D,2 | %5
[M:1/4] D,2 |[M:4/4] z4 [A,C]2 z2 | [G,B,D][G,B,D][E,G,][E,G,] [D,A,]3 [D,C] | %8
 [G,B,G][G,B,G][G,DG][G,B,] G-[B,DG][G,DG][K:bass][E,^C] |[M:3/4] z E DC G,,2 |[M:1/4] z z/ =F/ | %11
[M:4/4] C,C,G,,G,, C,C, G,,>G,, | z4 C,2 z2 | E,E, z z/ A/ E,E, B,,>B,, | %14
[M:7/8] E,E,C, [C,E,] [B,,F,]3 |[M:1/4] D,2 |[M:4/4] z4 [A,C]2 z2 | %17
 [G,B,D][G,B,D][E,G,][E,G,] [D,A,]3 [D,C] | %18
 [G,B,G][G,B,G][G,DG][G,B,] G-[B,DG][G,DG][K:bass][E,^C] |[M:7/4] z EDC G,,2 z2 z2 z4 |] %20
V:3
 x8 | x8 | x8 | [G,B,G][G,B,G][G,DG][G,B,] C[K:bass]B,[D,G,]B,, |[M:3/4] x6 |[M:1/4] x2 | %6
[M:4/4] [G,B,D]2 [D,B,D][D,B,D] DD[D,CD][D,CD] | x8 | z4 .C2 z2[K:bass] |[M:3/4] D,4 z2 | %10
[M:1/4] [G,,B,]2 |[M:4/4] x8 | C,C,G,,G,, z G, B,,>B,, | z2 B,,2 z4 |[M:7/8] x7 |[M:1/4] x2 | %16
[M:4/4] [G,B,D]2 [D,B,D][D,B,D] DD[D,CD][D,CD] | x8 | z4 .C2 z2[K:bass] |[M:7/4] D,4 z2 z2 z2 z4 |] %20
V:4
 x8 | x8 | x8 | x8 |[M:3/4] x6 |[M:1/4] x2 |[M:4/4] x8 | x8 | x8 |[M:3/4] .D2 z2 z2 |[M:1/4] x2 | %11
[M:4/4] x8 | x8 | x8 |[M:7/8] x7 |[M:1/4] x2 |[M:4/4] x8 | x8 | x8 |[M:7/4] .D2 z2 z2 z2 z2 z4 |] %20

